assets/svgs/pages/nuxt-consulting/performance.svg

<svg viewBox="0 0 70.22 80.62" xmlns="http://www.w3.org/2000/svg"><path d="m28.38 73h-11.24v-31h11.24zm-9.74-1.5h8.24v-28.04h-8.24z" fill="#c4c4c4"/><path d="m11.24 73h-11.24v-19.52h11.24zm-9.74-1.47h8.24v-16.53h-8.24z" fill="#c4c4c4"/><g fill="#ff7c6c"><path d="m7.01 30.86h13.13v1.5h-13.13z" transform="matrix(.86 -.51 .51 .86 -14.21 11.33)"/><path d="m57.79 9.74a5.16 5.16 0 0 1 -.79-.06 4.86 4.86 0 0 1 -4-5.59 4.81 4.81 0 0 1 2-3.17 4.87 4.87 0 0 1 7.66 4.73 4.82 4.82 0 0 1 -2 3.17 4.76 4.76 0 0 1 -2.87.92zm0-8.24a3.36 3.36 0 0 0 -3.32 2.83 3.35 3.35 0 0 0 .53 2.51 3.38 3.38 0 0 0 4.71.77 3.34 3.34 0 0 0 1.35-2.2 3.3 3.3 0 0 0 -.59-2.51 3.38 3.38 0 0 0 -2.7-1.4z"/><path d="m39.91 20.44a4.86 4.86 0 0 1 -2.85-8.82 4.77 4.77 0 0 1 3.62-.86 4.86 4.86 0 0 1 4 5.59 4.87 4.87 0 0 1 -4.8 4.09zm0-8.24a3.4 3.4 0 0 0 -2 .63 3.34 3.34 0 0 0 -1.33 2.17 3.3 3.3 0 0 0 .59 2.51 3.37 3.37 0 1 0 3.27-5.3 3.27 3.27 0 0 0 -.54-.01z"/><path d="m22.77 31a4.88 4.88 0 1 1 4.8-4.09 4.87 4.87 0 0 1 -4.8 4.09zm0-8.24a3.36 3.36 0 0 0 -3.33 2.83 3.37 3.37 0 1 0 6.66 1.08 3.37 3.37 0 0 0 -2.79-3.87 3.27 3.27 0 0 0 -.55-.03z"/><path d="m4.88 41.64a4.86 4.86 0 0 1 -2.88-8.82 4.81 4.81 0 0 1 3.65-.82 4.87 4.87 0 0 1 -.77 9.67zm0-8.24a3.34 3.34 0 0 0 -2 .64 3.37 3.37 0 1 0 4.71.76 3.34 3.34 0 0 0 -2.2-1.35 3.29 3.29 0 0 0 -.52-.05z"/><path d="m42.63 9.64h12.62v1.5h-12.62z" transform="matrix(.86975344 -.49348653 .49348653 .86975344 1.25 25.51)"/><path d="m24.97 20.11h12.62v1.5h-12.62z" transform="matrix(.86975344 -.49348653 .49348653 .86975344 -6.22 18.15)"/></g><path d="m52.92 44.41v-22.35h8.24v23.7c.52.21 1 .43 1.5.68v-25.88h-11.24v24c.5-.1 1-.13 1.5-.15z" fill="#c4c4c4"/><path d="m35.78 56v-22.42h8.22v13.42c.49-.28 1-.53 1.5-.77v-14.15h-11.22v28.67a19.72 19.72 0 0 1 1.5-4.75z" fill="#c4c4c4"/><path d="m53.85 80.62a16.37 16.37 0 1 1 16.37-16.36 16.38 16.38 0 0 1 -16.37 16.36zm0-31.23a14.87 14.87 0 1 0 14.87 14.87 14.88 14.88 0 0 0 -14.87-14.87z" fill="#ff7c6c"/><path d="m53.85 80.62a16.37 16.37 0 1 1 16.37-16.36 16.38 16.38 0 0 1 -16.37 16.36zm0-31.23a14.87 14.87 0 1 0 14.87 14.87 14.88 14.88 0 0 0 -14.87-14.87z" fill="#ff7c6c"/><path d="m51 70-4.32-4.3a.75.75 0 0 1 0-1.06.74.74 0 0 1 1.06 0l3.12 3.11 7.78-9.24a.76.76 0 0 1 1.06-.1.77.77 0 0 1 .09 1.06z" fill="#ff7c6c"/></svg>

<svg id="Layer_1" data-name="Layer 1" xmlns="http://www.w3.org/2000/svg" viewBox="0 0 70.22 80.62"><defs><style>.cls-1{fill:#c4c4c4;}.cls-2{fill:#ff7c6c;}</style></defs><path class="cls-1" d="M28.38,73H17.14V42H28.38Zm-9.74-1.5h8.24V43.46H18.64Z"/><path class="cls-1" d="M11.24,73H0V53.48H11.24ZM1.5,71.53H9.74V55H1.5Z"/><rect class="cls-2" x="7.01" y="30.86" width="13.13" height="1.5" transform="matrix(0.86, -0.51, 0.51, 0.86, -14.21, 11.33)"/><path class="cls-2" d="M57.79,9.74A5.16,5.16,0,0,1,57,9.68a4.86,4.86,0,0,1-4-5.59,4.81,4.81,0,0,1,2-3.17,4.87,4.87,0,0,1,7.66,4.73,4.82,4.82,0,0,1-2,3.17A4.76,4.76,0,0,1,57.79,9.74Zm0-8.24a3.36,3.36,0,0,0-3.32,2.83A3.35,3.35,0,0,0,55,6.84a3.38,3.38,0,0,0,4.71.77,3.34,3.34,0,0,0,1.35-2.2,3.3,3.3,0,0,0-.59-2.51A3.38,3.38,0,0,0,57.77,1.5Z"/><path class="cls-2" d="M39.91,20.44a4.86,4.86,0,0,1-2.85-8.82,4.77,4.77,0,0,1,3.62-.86,4.86,4.86,0,0,1,4,5.59,4.87,4.87,0,0,1-4.8,4.09Zm0-8.24a3.4,3.4,0,0,0-2,.63h0A3.34,3.34,0,0,0,36.58,15a3.3,3.3,0,0,0,.59,2.51,3.37,3.37,0,1,0,3.27-5.3A3.27,3.27,0,0,0,39.9,12.2Z"/><path class="cls-2" d="M22.77,31a4.88,4.88,0,1,1,4.8-4.09A4.87,4.87,0,0,1,22.77,31Zm0-8.24a3.36,3.36,0,0,0-3.33,2.83,3.37,3.37,0,1,0,6.66,1.08,3.37,3.37,0,0,0-2.79-3.87A3.27,3.27,0,0,0,22.76,22.77Z"/><path class="cls-2" d="M4.88,41.64A4.86,4.86,0,0,1,2,32.82H2A4.81,4.81,0,0,1,5.65,32a4.87,4.87,0,0,1-.77,9.67Zm0-8.24a3.34,3.34,0,0,0-2,.64h0a3.37,3.37,0,1,0,4.71.76,3.34,3.34,0,0,0-2.2-1.35A3.29,3.29,0,0,0,4.87,33.4Z"/><rect class="cls-2" x="42.63" y="9.64" width="12.62" height="1.5" transform="translate(1.25 25.51) rotate(-29.57)"/><rect class="cls-2" x="24.97" y="20.11" width="12.62" height="1.5" transform="translate(-6.22 18.15) rotate(-29.57)"/><path class="cls-1" d="M52.92,44.41V22.06h8.24v23.7c.52.21,1,.43,1.5.68V20.56H51.42v24C51.92,44.46,52.42,44.43,52.92,44.41Z"/><path class="cls-1" d="M35.78,56V33.58H44V47c.49-.28,1-.53,1.5-.77V32.08H34.28V60.75A19.72,19.72,0,0,1,35.78,56Z"/><path class="cls-2" d="M53.85,80.62A16.37,16.37,0,1,1,70.22,64.26,16.38,16.38,0,0,1,53.85,80.62Zm0-31.23A14.87,14.87,0,1,0,68.72,64.26,14.88,14.88,0,0,0,53.85,49.39Z"/><path class="cls-2" d="M53.85,80.62A16.37,16.37,0,1,1,70.22,64.26,16.38,16.38,0,0,1,53.85,80.62Zm0-31.23A14.87,14.87,0,1,0,68.72,64.26,14.88,14.88,0,0,0,53.85,49.39Z"/><path class="cls-2" d="M51,70,46.68,65.7a.75.75,0,0,1,0-1.06.74.74,0,0,1,1.06,0l3.12,3.11,7.78-9.24a.76.76,0,0,1,1.06-.1.77.77,0,0,1,.09,1.06Z"/></svg>
